X: 82
T:Phrygian (mi) Scales
L:1/4
M:10/4
K:CPhr
"^C"       C2 DE FG AB c2|c2 BA GF ED C2||
M:10/4
K:GPhr
"^G"       G2 AB cd ef g2|g2 fe dc BA G2||
M:10/4
K:DPhr
"^D"       D2 EF GA Bc d2|d2 cB AG FE D2||
M:10/4
K:APhr
"^A"       A2 Bc de fg a2|a2 gf ed cB A2||
M:10/4
K:EPhr
"^E"       E2 FG AB cd e2|e2 dc BA GF E2||
M:10/4
K:BPhr
"^B"       B2 cd ef ga b2|b2 ag fe dc B2||
M:10/4
K:F#Phr
"^F sharp" F2 GA Bc de f2|f2 ed cB AG F2||
M:10/4
K:C#Phr
"^C sharp" C2 DE FG AB c2|c2 BA GF ED C2||
M:10/4
K:G#Phr
"^G sharp" G2 AB cd ef g2|g2 fe dc BA G2|]

On the pipe chanter this would be the F mode, but no pipe music uses it.


7. The Lydian and Locrian Modes
== ============================

Two other modes named by theorists are the LYDIAN and LOCRIAN modes (the
white-note scales beginning on F and B respectively).  The Locrian mode
was never used in practice (or even mentioned in theory) in the Middle
Ages, and has no relevance at all to Scottish music - it seems to have been
a 19th century invention by somebody with an engineer's mentality who saw
you could do it on the piano.  The Lydian mode was used in some Gregorian
chant (perhaps less than the written sources suggest, as some of it might
have become major in performance) and occurs in some Scandinavian music.
It has a sort of theoretical existence in Scottish music, as it helps
describe other, much more common, modes.  Its interval pattern is TTTS TTS;
in A it's AB^c^de^f^ga.  In sol-fa it's the fa-mode.

